main-pages/gulp-scss-starter/dist/img/default/offer-filter/details1.svg

<svg width="26" height="27" viewBox="0 0 26 27" fill="none" xmlns="http://www.w3.org/2000/svg">
<path d="M25.0005 13.6304C25.0005 20.2578 19.6279 25.6304 13.0005 25.6304M25.0005 13.6304C25.0005 7.00295 19.6279 1.63037 13.0005 1.63037M25.0005 13.6304H20.2005M13.0005 25.6304C6.37307 25.6304 1.00049 20.2578 1.00049 13.6304M13.0005 25.6304V20.8304M1.00049 13.6304C1.00049 7.00295 6.37307 1.63037 13.0005 1.63037M1.00049 13.6304H5.80049M13.0005 1.63037V6.43037" stroke="#616161" stroke-width="2" stroke-linecap="round" stroke-linejoin="round"/>
</svg>

<svg width="26" height="27" viewBox="0 0 26 27" fill="none" xmlns="http://www.w3.org/2000/svg"><path d="M25 13.63c0 6.628-5.372 12-12 12m12-12c0-6.627-5.372-12-12-12m12 12h-4.8m-7.2 12c-6.627 0-12-5.372-12-12m12 12v-4.8m-12-7.2c0-6.627 5.373-12 12-12m-12 12h4.8m7.2-12v4.8" stroke="#616161" stroke-width="2" stroke-linecap="round" stroke-linejoin="round"/></svg>
